img/profile/riwatex.svg

<svg width="24" height="24" viewBox="0 0 24 24" fill="none" xmlns="http://www.w3.org/2000/svg">
<g clip-path="url(#clip0_813_3034)">
<path d="M13.3414 3.07072C12.4969 2.64843 11.5027 2.64843 10.6582 3.07072L4.7998 5.9999V14.0279C4.7998 16.1999 7.36221 18.6711 11.9998 21.5999C16.6374 18.6711 19.1998 16.7999 19.1998 14.0279C19.1998 11.2559 19.1998 5.9999 19.1998 5.9999L13.3414 3.07072Z" stroke="#F2F4F6" stroke-width="2" stroke-linejoin="round"/>
<path d="M15.22 15H13.61L12.22 12.36H11.22V15H9.83V9.41C9.83 8.87667 9.95333 8.49 10.2 8.25C10.4467 8.00333 10.86 7.88 11.44 7.88H12.62C13.3267 7.88 13.8867 8.09667 14.3 8.53C14.72 8.95667 14.93 9.5 14.93 10.16C14.93 10.64 14.8033 11.0567 14.55 11.41C14.3033 11.7567 13.9967 11.9967 13.63 12.13L15.22 15ZM12.53 11.2C12.8233 11.2 13.0633 11.1 13.25 10.9C13.4433 10.6933 13.54 10.44 13.54 10.14C13.54 9.83333 13.4467 9.58667 13.26 9.4C13.08 9.21333 12.8367 9.12 12.53 9.12H11.84C11.4267 9.12 11.22 9.33 11.22 9.75V11.2H12.53Z" fill="white"/>
</g>
<defs>
<clipPath id="clip0_813_3034">
<rect width="24" height="24" fill="white"/>
</clipPath>
</defs>
</svg>

<svg width="24" height="24" viewBox="0 0 24 24" fill="none" xmlns="http://www.w3.org/2000/svg"><g clip-path="url(#clip0_813_3034)"><path d="M13.341 3.07a3 3 0 00-2.683 0L4.8 6v8.028C4.8 16.2 7.362 18.67 12 21.6c4.637-2.929 7.2-4.8 7.2-7.572V6l-5.86-2.93z" stroke="#F2F4F6" stroke-width="2" stroke-linejoin="round"/><path d="M15.22 15h-1.61l-1.39-2.64h-1V15H9.83V9.41c0-.533.123-.92.37-1.16.247-.247.66-.37 1.24-.37h1.18c.707 0 1.267.217 1.68.65.42.427.63.97.63 1.63 0 .48-.127.897-.38 1.25a1.924 1.924 0 01-.92.72L15.22 15zm-2.69-3.8a.94.94 0 00.72-.3c.193-.207.29-.46.29-.76 0-.307-.093-.553-.28-.74-.18-.187-.423-.28-.73-.28h-.69c-.413 0-.62.21-.62.63v1.45h1.31z" fill="#fff"/></g><defs><clipPath id="clip0_813_3034"><path fill="#fff" d="M0 0h24v24H0z"/></clipPath></defs></svg>
